X:43
T:March – From Newark,2voices. JGi.043
M:C
L:1/8
Q:1/4=140
S:Joshua Gibbons MS,1823,Tealby,Lincs.
R:march
O:Tealby,Lincolnshire
Z:VMP/R.Greig, 2009
K:F
[V:1]|:c4d>c d>e|f3ga2c2|d2(ba) (ag)(gf)|(f4e2)z2|
[V:2]|:A4B>A B>G|A3cf2A2|B2 dc cB BA|(A4G2)z2|
[V:1]c4d>c d>e|f3ga2(3fga|g2ce edc=B|c2c>cc2z2:|
[V:2]A4B>A B>G|A3cf2(3def|ec GE GFED|E2E>EE2z2:|
[V:1]|:e3fc2d2|e3fc2d2|efge fdaf|f4e2c2|
[V:2]|:g3ac2f2|g3ae2f2|gabg afc’a|a4g2c2|
[V:1]A3cf2a2|agfee3d|cB A>BA2G2|A2A>AA2z2:|
[V:2]f3ga2c’2|c’bagg3b|afdgf2e2|f2f>ff2z2:|

